X: 1
T: All My Loving
C: Beatles
R: jig
N: This is NOT the original version of the tune!!!
M: 6/8
L: 1/8
K: D
G2F \
| "Em"E3 F2G | "A7"AB2- B2c \
| "D"d3 d2c | "Bm"B2F- F2B \
| "G"B3 B2A | "Em"G2E- E2D \
| "C"E6- | "A7"E3 G2F \
|| "Em"E3 F2G | "A7"A3 B2c \
| "D"d3 d2c | "Bm"B2F zBB |
| "G"B3 B2A | "A7"GF2- F2E \
| "D"D6- | D2z  :|\
"A"\
[| d2c \
| "Bm"B2F- F3 | "Bb"F2E D2E \
| "A"F6- | "D"F2z d2c \
| "Bm"B2F- F3 | "Bb"F2E E2D \
| "D"D6- | D2z |]
